X:1973
L:1/16
M:2/4
K:G
 (gf | g2)dB G2AB | c2AG FDEF | GFGA BAGB | A2d2 d2(gf | g2)dB G2AB | c2AG F2GA | Bcdg egfa | 
 g2g2g2 :: fg | a2fe d2ef | gfga b2fg | a2f^d B2^cd | e^def g2 GF | E^DEF GFGA | B^deg f2ga | 
 bagf ge=dc | B2G2G2 :|

